frontend/public/icons/home.svg

<svg xmlns="http://www.w3.org/2000/svg"  viewBox="0 0 48 48" width="144px" height="144px"><path d="M 23.951172 4 A 1.50015 1.50015 0 0 0 23.072266 4.3222656 L 8.859375 15.519531 C 7.0554772 16.941163 6 19.113506 6 21.410156 L 6 40.5 C 6 41.863594 7.1364058 43 8.5 43 L 18.5 43 C 19.863594 43 21 41.863594 21 40.5 L 21 30.5 C 21 30.204955 21.204955 30 21.5 30 L 26.5 30 C 26.795045 30 27 30.204955 27 30.5 L 27 40.5 C 27 41.863594 28.136406 43 29.5 43 L 39.5 43 C 40.863594 43 42 41.863594 42 40.5 L 42 21.410156 C 42 19.113506 40.944523 16.941163 39.140625 15.519531 L 24.927734 4.3222656 A 1.50015 1.50015 0 0 0 23.951172 4 z M 24 7.4101562 L 37.285156 17.876953 C 38.369258 18.731322 39 20.030807 39 21.410156 L 39 40 L 30 40 L 30 30.5 C 30 28.585045 28.414955 27 26.5 27 L 21.5 27 C 19.585045 27 18 28.585045 18 30.5 L 18 40 L 9 40 L 9 21.410156 C 9 20.030807 9.6307412 18.731322 10.714844 17.876953 L 24 7.4101562 z"/></svg>

<svg xmlns="http://www.w3.org/2000/svg" xmlns:xlink="http://www.w3.org/1999/xlink" viewBox="0,0,256,256" width="48px" height="48px" fill-rule="nonzero"><g transform=""><g fill="#fffbfb" fill-rule="nonzero" stroke="none" stroke-width="1" stroke-linecap="butt" stroke-linejoin="miter" stroke-miterlimit="10" stroke-dasharray="" stroke-dashoffset="0" font-family="none" font-weight="none" font-size="none" text-anchor="none" style="mix-blend-mode: normal"><g transform="scale(5.33333,5.33333)"><path d="M23.95117,4c-0.31984,0.01092 -0.62781,0.12384 -0.87891,0.32227l-14.21289,11.19727c-1.8039,1.42163 -2.85937,3.59398 -2.85937,5.89063v19.08984c0,1.36359 1.13641,2.5 2.5,2.5h10c1.36359,0 2.5,-1.13641 2.5,-2.5v-10c0,-0.29504 0.20496,-0.5 0.5,-0.5h5c0.29504,0 0.5,0.20496 0.5,0.5v10c0,1.36359 1.13641,2.5 2.5,2.5h10c1.36359,0 2.5,-1.13641 2.5,-2.5v-19.08984c0,-2.29665 -1.05548,-4.46899 -2.85937,-5.89062l-14.21289,-11.19727c-0.27738,-0.21912 -0.62324,-0.33326 -0.97656,-0.32227zM24,7.41016l13.28516,10.4668c1.0841,0.85437 1.71484,2.15385 1.71484,3.5332v18.58984h-9v-9.5c0,-1.91495 -1.58505,-3.5 -3.5,-3.5h-5c-1.91495,0 -3.5,1.58505 -3.5,3.5v9.5h-9v-18.58984c0,-1.37935 0.63074,-2.67883 1.71484,-3.5332z"></path></g></g></g></svg>
